icons/solid/user-add.svg

<svg width="24" height="24" viewBox="0 0 24 24" fill="none" xmlns="http://www.w3.org/2000/svg">
<path fill-rule="evenodd" clip-rule="evenodd" d="M2 9C2 5.68629 4.68629 3 8 3C11.3137 3 14 5.68629 14 9C14 10.9443 13.0752 12.6725 11.6415 13.769C14.1863 14.9067 16 17.2079 16 20C16 20.5523 15.5523 21 15 21H1C0.447715 21 0 20.5523 0 20C0 17.2079 1.81374 14.9067 4.35847 13.769C2.92478 12.6725 2 10.9443 2 9ZM21 9C21 8.44772 20.5523 8 20 8C19.4477 8 19 8.44772 19 9V11H17C16.4477 11 16 11.4477 16 12C16 12.5523 16.4477 13 17 13H19V15C19 15.5523 19.4477 16 20 16C20.5523 16 21 15.5523 21 15V13H23C23.5523 13 24 12.5523 24 12C24 11.4477 23.5523 11 23 11H21V9Z" fill="currentColor"/>
</svg>

<svg width="24" height="24" fill="none" xmlns="http://www.w3.org/2000/svg"><path fill-rule="evenodd" clip-rule="evenodd" d="M2 9a6 6 0 119.642 4.769C14.186 14.907 16 17.208 16 20a1 1 0 01-1 1H1a1 1 0 01-1-1c0-2.792 1.814-5.093 4.358-6.231A5.99 5.99 0 012 9zm19 0a1 1 0 10-2 0v2h-2a1 1 0 100 2h2v2a1 1 0 102 0v-2h2a1 1 0 100-2h-2V9z" fill="currentColor"/></svg>
